X:12881
T:Schottisch  CF (st07833)  ABCDC
T:Hanny Christen. Bd.V  Basel II, Jura. S.193  (st07833) orig. C,F
S: Basel II. "Mundwilermusig", Tenniken. S.183-219.
S:Überliefert durch Hermann und Johannes Mundwiler und Ernst Otter.
P:ABCDC
R:Schottisch
M:2/4
L:1/8
K:C %%MIDI gchordon
[P:A]  "C"cc/c/ ce/c/ | gg/g/ gc'/f/ | eg/e/ ce/c/ | "G7"Gf ed | Gg f/g/f | "C"Gg e/f/e | "G7"b/c'/b e/f/e | "C"g/a/g e/f/e | 
"G7"Gg f/g/f | "C"Gg e/f/e | "Dm"ad/e/ "G7"fA/B/ | "C"c{/d}c/>B/ c2 || [P:B] "C"cB/c/ eg | "D7"a^f ac' | "G7"=fd fa | "C"g2zc | 
"G7"d>e f/e/f/a/ | "C"gc' ba | "G7"gf d/B/d | "C"fe E/G/c | "G7"d>e f/e/f/a/ | "C"gc' ba | "G7"a/g/B a/g/B | "C"c{/d}c/B/c2 || [K:F] 
[P:C]  ("F"A/B/).A (c/d/).c | (f/g/).f (a/b/).a | "C7".c'!>!b2.g | "F"fe dc | (A/B/).A (c/d/).c | ("C7"^f/g/).g (a/b/).b | "F"a/c/f/a/ "C7"g/c/e/g/ | "F"ff "_Fine"fg || [K:C] 
[P:D] |: "C7"g^f/g/ a/b/c'/d'/ | "C"e'>d' c'>b | "C7"ag fd | "C"c/e/g g/^f/g | "C7"g^f/g/ a/b/c'/d'/ | "C"e'>d' c'>b | "C7"ag fd | "C"cc "_>Teil C"cz :| 
W:
%W:Parts: ABCDC
%W:Anmerkung H.C.: 
%W:Anmerkung Hrsg,:
% st07833
% Sept. 1, 2018

